; generated by Slic3r 1.3.1-dev (Build 24fc045) on 2023-10-23 at 15:34:58

; Print Config Notes: 
; TJH N0.4 S100
; 
; Filament notes: 
; Change log
; 
; v04->05
; Problem seperation at 03 layer height
; solution: rise temp to 210
; 
; v03->04
; problem: tail overhang was sloppy- not present in V01
; solution: cooling fan set to 100% 
; 
; 
; v02->03
; problem: slight layer sepration at top layers[SOLVED with these settings]
; 
; solution
; raised printing temp to 200 (from 190)
; cooling can set to half value (Max %50)
; 
; v01 -> v02
; problem: layer sepration at top layers
; 
; solution
; Removed cooling fan 
; [unchecked] cooling->enable auto cooling
; 
; v5->v6
; increased temp 215->225 layer seperation
; extrusion multiplier 1->1.1 
; 
; 
; 
; external perimeters extrusion width = 0.44mm (11.27mm^3/s)
; perimeters extrusion width = 0.48mm (12.57mm^3/s)
; infill extrusion width = 0.48mm (12.57mm^3/s)
; solid infill extrusion width = 0.48mm (12.57mm^3/s)
; top infill extrusion width = 0.48mm (10.05mm^3/s)

M107
G92 E0
M104 S220 ; set extruder temp
M140 S60 ; set bed temp
M190 S60 ; wait for bed temp
M109 S220 ; wait for extruder temp

G92 Z40; printer always finishes here
G28 X Y;Home
G1 X 20 F1000 ;
G1 Y 20 F1000 ;
G1 Z0.01 F400 ;
;Prime the extruder
G92 E0  ;reset extruder original: G1 F200 E3
G1 E3 F200 ;Prime extruder 3mm
G92 E0
G1 Z0 F400

; Filament gcode

G21 ; set units to millimeters
G90 ; use absolute coordinates
M82 ; use absolute distances for extrusion
G92 E0
G1 Z0.200 F15000.000
G1 E-2.00000 F2400.00000
G92 E0
G1 X88.432 Y77.840 F15000.000
G1 E2.00000 F2400.00000
G1 F2880.000
G1 X90.039 Y77.044 E2.05325
G1 X91.000 Y76.929 E2.08198
G1 X119.000 Y76.929 E2.91334
G1 X120.750 Y77.324 E2.96659
G1 X122.160 Y78.432 E3.01985
G1 X122.956 Y80.039 E3.07310
G1 X123.071 Y81.000 E3.10183
G1 X123.071 Y109.000 E3.93318
G1 X122.676 Y110.750 E3.98644
G1 X121.568 Y112.160 E4.03969
G1 X119.961 Y112.956 E4.09295
G1 X119.000 Y113.071 E4.12167
G1 X91.000 Y113.071 E4.95303
G1 X89.250 Y112.676 E5.00628
G1 X87.840 Y111.568 E5.05954
G1 X87.044 Y109.961 E5.11279
G1 X86.929 Y109.000 E5.14152
G1 X86.929 Y81.000 E5.97287
G1 X87.324 Y79.250 E6.02613
G1 X88.395 Y77.888 E6.07760
G1 X88.780 Y78.022 F15000.000
G1 F2880.000
G1 X91.000 Y77.286 E6.14703
G1 X119.000 Y77.286 E6.97839
G1 X120.666 Y77.680 E7.02922
G1 X121.978 Y78.780 E7.08006
G1 X122.714 Y81.000 E7.14949
G1 X122.714 Y109.000 E7.98085
G1 X122.320 Y110.666 E8.03168
G1 X121.220 Y111.978 E8.08251
G1 X119.000 Y112.714 E8.15195
G1 X91.000 Y112.714 E8.98330
G1 X89.334 Y112.320 E9.03414
G1 X88.022 Y111.220 E9.08497
G1 X87.286 Y109.000 E9.15440
G1 X87.286 Y81.000 E9.98576
G1 X87.680 Y79.334 E10.03659
G1 X88.742 Y78.068 E10.08565
G1 X89.127 Y78.214 F15000.000
G1 F2880.000
G1 X91.000 Y77.643 E10.14380
G1 X119.000 Y77.643 E10.97516
G1 X120.578 Y78.037 E11.02345
G1 X121.786 Y79.127 E11.07175
G1 X122.357 Y81.000 E11.12990
G1 X122.357 Y109.000 E11.96126
G1 X121.963 Y110.578 E12.00955
G1 X120.873 Y111.786 E12.05784
G1 X119.000 Y112.357 E12.11600
G1 X91.000 Y112.357 E12.94735
G1 X89.422 Y111.963 E12.99565
G1 X88.214 Y110.873 E13.04394
G1 X87.643 Y109.000 E13.10210
G1 X87.643 Y81.000 E13.93345
G1 X88.037 Y79.422 E13.98175
G1 X89.086 Y78.259 E14.02826
G1 E12.02826 F2400.00000
G92 E0
G1 X118.086 Y108.086 F15000.000
G1 E2.00000 F2400.00000
G1 F4800.000
G1 X91.914 Y108.086 E2.77707
G1 X91.914 Y81.914 E3.55414
G1 X118.086 Y81.914 E4.33121
G1 X118.086 Y108.026 E5.10650
G1 X118.443 Y108.443 F15000.000
G1 F4800.000
G1 X91.557 Y108.443 E5.90478
G1 X91.557 Y81.557 E6.70305
G1 X118.443 Y81.557 E7.50133
G1 X118.443 Y108.383 E8.29782
G1 X118.800 Y108.800 F15000.000
G1 F4800.000
G1 X91.200 Y108.800 E9.11730
G1 X91.200 Y81.200 E9.93678
G1 X118.800 Y81.200 E10.75626
G1 X118.800 Y108.740 E11.57396
G1 X118.414 Y108.696 F15000.000
G1 X117.590 Y107.868 F15000.000
G1 F4800.000
G1 X117.868 Y107.590 E11.58573
G1 X117.868 Y107.081 E11.60097
G1 X117.081 Y107.868 E11.63429
G1 X116.571 Y107.868 E11.64953
G1 X117.868 Y106.571 E11.70440
G1 X117.868 Y106.062 E11.71965
G1 X116.062 Y107.868 E11.79608
G1 X115.553 Y107.868 E11.81132
G1 X117.868 Y105.553 E11.90930
G1 X117.868 Y105.044 E11.92454
G1 X115.044 Y107.868 E12.04408
G1 X114.535 Y107.868 E12.05933
G1 X117.868 Y104.535 E12.20042
G1 X117.868 Y104.026 E12.21566
G1 X114.026 Y107.868 E12.37831
G1 X113.517 Y107.868 E12.39356
G1 X117.868 Y103.517 E12.57776
G1 X117.868 Y103.007 E12.59300
G1 X113.007 Y107.868 E12.79877
G1 X112.498 Y107.868 E12.81401
G1 X117.868 Y102.498 E13.04132
G1 X117.868 Y101.989 E13.05657
G1 X111.989 Y107.868 E13.30544
G1 X111.480 Y107.868 E13.32068
G1 X117.868 Y101.480 E13.59111
G1 X117.868 Y100.971 E13.60635
G1 X110.971 Y107.868 E13.89833
G1 X110.462 Y107.868 E13.91357
G1 X117.868 Y100.462 E14.22711
G1 X117.868 Y99.953 E14.24235
G1 X109.953 Y107.868 E14.57744
G1 X109.443 Y107.868 E14.59268
G1 X117.868 Y99.443 E14.94933
G1 X117.868 Y98.934 E14.96457
G1 X108.934 Y107.868 E15.34278
G1 X108.425 Y107.868 E15.35802
G1 X117.868 Y98.425 E15.75778
G1 X117.868 Y97.916 E15.77302
G1 X107.916 Y107.868 E16.19433
G1 X107.407 Y107.868 E16.20957
G1 X117.868 Y97.407 E16.65244
G1 X117.868 Y96.898 E16.66768
G1 X106.898 Y107.868 E17.13211
G1 X106.389 Y107.868 E17.14735
G1 X117.868 Y96.389 E17.63333
G1 X117.868 Y95.879 E17.64857
G1 X105.879 Y107.868 E18.15610
G1 X105.370 Y107.868 E18.17135
G1 X117.868 Y95.370 E18.70044
G1 X117.868 Y94.861 E18.71568
G1 X104.861 Y107.868 E19.26632
G1 X104.352 Y107.868 E19.28156
G1 X117.868 Y94.352 E19.85376
G1 X117.868 Y93.843 E19.86901
G1 X103.843 Y107.868 E20.46276
G1 X103.334 Y107.868 E20.47800
G1 X117.868 Y93.334 E21.09331
G1 X117.868 Y92.824 E21.10855
G1 X102.824 Y107.868 E21.74542
G1 X102.315 Y107.868 E21.76066
G1 X117.868 Y92.315 E22.41908
G1 X117.868 Y91.806 E22.43432
G1 X101.806 Y107.868 E23.11430
G1 X101.297 Y107.868 E23.12954
G1 X117.868 Y91.297 E23.83107
G1 X117.868 Y90.788 E23.84631
G1 X100.788 Y107.868 E24.56940
G1 X100.279 Y107.868 E24.58464
G1 X117.868 Y90.279 E25.32928
G1 X117.868 Y89.770 E25.34452
G1 X99.770 Y107.868 E26.11072
G1 X99.260 Y107.868 E26.12596
G1 X117.868 Y89.260 E26.91371
G1 X117.868 Y88.751 E26.92896
G1 X98.751 Y107.868 E27.73826
G1 X98.242 Y107.868 E27.75351
G1 X117.868 Y88.242 E28.58437
G1 X117.868 Y87.733 E28.59961
G1 X97.733 Y107.868 E29.45203
G1 X97.224 Y107.868 E29.46727
G1 X117.868 Y87.224 E30.34124
G1 X117.868 Y86.715 E30.35648
G1 X96.715 Y107.868 E31.25201
G1 X96.206 Y107.868 E31.26725
G1 X117.868 Y86.206 E32.18434
G1 X117.868 Y85.696 E32.19958
G1 X95.696 Y107.868 E33.13822
G1 X95.187 Y107.868 E33.15346
G1 X117.868 Y85.187 E34.11365
G1 X117.868 Y84.678 E34.12889
G1 X94.678 Y107.868 E35.11064
G1 X94.169 Y107.868 E35.12588
G1 X117.868 Y84.169 E36.12919
G1 X117.868 Y83.660 E36.14443
G1 X93.660 Y107.868 E37.16929
G1 X93.151 Y107.868 E37.18453
G1 X117.868 Y83.151 E38.23094
G1 X117.868 Y82.642 E38.24619
G1 X92.642 Y107.868 E39.31415
G1 X92.132 Y107.868 E39.32940
G1 X117.868 Y82.132 E40.41892
G1 X117.359 Y82.132 E40.43416
G1 X92.132 Y107.359 E41.50213
G1 X92.132 Y106.849 E41.51738
G1 X116.849 Y82.132 E42.56379
G1 X116.340 Y82.132 E42.57903
G1 X92.132 Y106.340 E43.60390
G1 X92.132 Y105.831 E43.61914
G1 X115.831 Y82.132 E44.62244
G1 X115.322 Y82.132 E44.63769
G1 X92.132 Y105.322 E45.61944
G1 X92.132 Y104.813 E45.63468
G1 X114.813 Y82.132 E46.59487
G1 X114.304 Y82.132 E46.61012
G1 X92.132 Y104.304 E47.54876
G1 X92.132 Y103.794 E47.56400
G1 X113.795 Y82.132 E48.48108
G1 X113.285 Y82.132 E48.49633
G1 X92.132 Y103.285 E49.39186
G1 X92.132 Y102.776 E49.40710
G1 X112.776 Y82.132 E50.28107
G1 X112.267 Y82.132 E50.29631
G1 X92.132 Y102.267 E51.14873
G1 X92.132 Y101.758 E51.16398
G1 X111.758 Y82.132 E51.99484
G1 X111.249 Y82.132 E52.01008
G1 X92.132 Y101.249 E52.81939
G1 X92.132 Y100.740 E52.83463
G1 X110.740 Y82.132 E53.62239
G1 X110.230 Y82.132 E53.63763
G1 X92.132 Y100.230 E54.40383
G1 X92.132 Y99.721 E54.41907
G1 X109.721 Y82.132 E55.16371
G1 X109.212 Y82.132 E55.17895
G1 X92.132 Y99.212 E55.90204
G1 X92.132 Y98.703 E55.91728
G1 X108.703 Y82.132 E56.61882
G1 X108.194 Y82.132 E56.63406
G1 X92.132 Y98.194 E57.31404
G1 X92.132 Y97.685 E57.32928
G1 X107.685 Y82.132 E57.98770
G1 X107.176 Y82.132 E58.00294
G1 X92.132 Y97.176 E58.63981
G1 X92.132 Y96.666 E58.65505
G1 X106.666 Y82.132 E59.27037
G1 X106.157 Y82.132 E59.28561
G1 X92.132 Y96.157 E59.87936
G1 X92.132 Y95.648 E59.89461
G1 X105.648 Y82.132 E60.46681
G1 X105.139 Y82.132 E60.48205
G1 X92.132 Y95.139 E61.03270
G1 X92.132 Y94.630 E61.04794
G1 X104.630 Y82.132 E61.57703
G1 X104.121 Y82.132 E61.59227
G1 X92.132 Y94.121 E62.09981
G1 X92.132 Y93.612 E62.11505
G1 X103.612 Y82.132 E62.60103
G1 X103.102 Y82.132 E62.61627
G1 X92.132 Y93.102 E63.08070
G1 X92.132 Y92.593 E63.09594
G1 X102.593 Y82.132 E63.53881
G1 X102.084 Y82.132 E63.55405
G1 X92.132 Y92.084 E63.97537
G1 X92.132 Y91.575 E63.99061
G1 X101.575 Y82.132 E64.39037
G1 X101.066 Y82.132 E64.40561
G1 X92.132 Y91.066 E64.78382
G1 X92.132 Y90.557 E64.79906
G1 X100.557 Y82.132 E65.15571
G1 X100.048 Y82.132 E65.17095
G1 X92.132 Y90.048 E65.50605
G1 X92.132 Y89.538 E65.52129
G1 X99.538 Y82.132 E65.83483
G1 X99.029 Y82.132 E65.85007
G1 X92.132 Y89.029 E66.14205
G1 X92.132 Y88.520 E66.15730
G1 X98.520 Y82.132 E66.42773
G1 X98.011 Y82.132 E66.44297
G1 X92.132 Y88.011 E66.69184
G1 X92.132 Y87.502 E66.70708
G1 X97.502 Y82.132 E66.93440
G1 X96.993 Y82.132 E66.94964
G1 X92.132 Y86.993 E67.15541
G1 X92.132 Y86.483 E67.17065
G1 X96.483 Y82.132 E67.35486
G1 X95.974 Y82.132 E67.37010
G1 X92.132 Y85.974 E67.53275
G1 X92.132 Y85.465 E67.54799
G1 X95.465 Y82.132 E67.68909
G1 X94.956 Y82.132 E67.70433
G1 X92.132 Y84.956 E67.82388
G1 X92.132 Y84.447 E67.83912
G1 X94.447 Y82.132 E67.93711
G1 X93.938 Y82.132 E67.95235
G1 X92.132 Y83.938 E68.02878
G1 X92.132 Y83.429 E68.04402
G1 X93.429 Y82.132 E68.09890
G1 X92.919 Y82.132 E68.11414
G1 X92.132 Y82.919 E68.14746
G1 X92.132 Y82.410 E68.16270
G1 X92.410 Y82.132 E68.17447
G1 Z0.500 F15000.000
G1 X117.964 Y107.964 F15000.000
G1 F6000.000
G1 X92.036 Y107.964 E69.52906
G1 X92.036 Y82.036 E70.88366
G1 X117.964 Y82.036 E72.23825
G1 X117.964 Y107.904 E73.58971
G1 X118.383 Y108.383 F15000.000
G1 F6000.000
G1 X91.617 Y108.383 E74.98807
G1 X91.617 Y81.617 E76.38643
G1 X118.383 Y81.617 E77.78479
G1 X118.383 Y108.323 E79.18002
G1 X118.780 Y108.780 F15000.000
G1 F6000.000
G1 X91.220 Y108.780 E80.47118
G1 X91.220 Y81.220 E81.76235
G1 X118.780 Y81.220 E83.05352
G1 X118.780 Y108.720 E84.34188
G1 X118.394 Y108.676 F15000.000
G1 X117.708 Y82.618 F15000.000
G1 F6000.000
G1 X117.382 Y82.292 E84.36616
G1 X116.785 Y82.292 E84.39763
G1 X117.708 Y83.215 E84.46643
G1 X117.708 Y83.813 E84.49790
G1 X116.187 Y82.292 E84.61121
G1 X115.590 Y82.292 E84.64268
G1 X117.708 Y84.410 E84.80050
G1 X117.708 Y85.008 E84.83197
G1 X114.992 Y82.292 E85.03429
G1 X114.395 Y82.292 E85.06577
G1 X117.708 Y85.605 E85.31260
G1 X117.708 Y86.202 E85.34407
G1 X113.798 Y82.292 E85.63542
G1 X113.200 Y82.292 E85.66689
G1 X117.708 Y86.800 E86.00274
G1 X117.708 Y87.397 E86.03422
G1 X112.603 Y82.292 E86.41458
G1 X112.006 Y82.292 E86.44605
G1 X117.708 Y87.994 E86.87093
G1 X117.708 Y88.592 E86.90240
G1 X111.408 Y82.292 E87.37178
G1 X110.811 Y82.292 E87.40325
G1 X117.708 Y89.189 E87.91715
G1 X117.708 Y89.787 E87.94862
G1 X110.213 Y82.292 E88.50702
G1 X109.616 Y82.292 E88.53849
G1 X117.708 Y90.384 E89.14140
G1 X117.708 Y90.981 E89.17288
G1 X109.019 Y82.292 E89.82030
G1 X108.421 Y82.292 E89.85177
G1 X117.708 Y91.579 E90.54370
G1 X117.708 Y92.176 E90.57517
G1 X107.824 Y82.292 E91.31161
G1 X107.227 Y82.292 E91.34309
G1 X117.708 Y92.773 E92.12404
G1 X117.708 Y93.371 E92.15551
G1 X106.629 Y82.292 E92.98097
G1 X106.032 Y82.292 E93.01244
G1 X117.708 Y93.968 E93.88241
G1 X117.708 Y94.566 E93.91388
G1 X105.434 Y82.292 E94.82836
G1 X104.837 Y82.292 E94.85983
G1 X117.708 Y95.163 E95.81882
G1 X117.708 Y95.760 E95.85029
G1 X104.240 Y82.292 E96.85379
G1 X103.642 Y82.292 E96.88526
G1 X117.708 Y96.358 E97.93327
G1 X117.708 Y96.955 E97.96474
G1 X103.045 Y82.292 E99.05726
G1 X102.448 Y82.292 E99.08873
G1 X117.708 Y97.552 E100.22576
G1 X117.708 Y98.150 E100.25723
G1 X101.850 Y82.292 E101.43877
G1 X101.253 Y82.292 E101.47024
G1 X117.708 Y98.747 E102.69629
G1 X117.708 Y99.345 E102.72776
G1 X100.655 Y82.292 E103.99831
G1 X100.058 Y82.292 E104.02979
G1 X117.708 Y99.942 E105.34485
G1 X117.708 Y100.539 E105.37633
G1 X99.461 Y82.292 E106.73590
G1 X98.863 Y82.292 E106.76737
G1 X117.708 Y101.137 E108.17146
G1 X117.708 Y101.734 E108.20293
G1 X98.266 Y82.292 E109.65152
G1 X97.668 Y82.292 E109.68300
G1 X117.708 Y102.332 E111.17610
G1 X117.708 Y102.929 E111.20757
G1 X97.071 Y82.292 E112.74518
G1 X96.474 Y82.292 E112.77666
G1 X117.708 Y103.526 E114.35878
G1 X117.708 Y104.124 E114.39025
G1 X95.876 Y82.292 E116.01688
G1 X95.279 Y82.292 E116.04836
G1 X117.708 Y104.721 E117.71950
G1 X117.708 Y105.318 E117.75097
G1 X94.682 Y82.292 E119.46662
G1 X94.084 Y82.292 E119.49810
G1 X117.708 Y105.916 E121.25826
G1 X117.708 Y106.513 E121.28973
G1 X93.487 Y82.292 E123.09440
G1 X92.889 Y82.292 E123.12587
G1 X117.708 Y107.111 E124.97505
G1 X117.708 Y107.708 E125.00653
G1 X92.292 Y82.292 E126.90021
G1 X92.292 Y82.889 E126.93169
G1 X117.111 Y107.708 E128.78087
G1 X116.513 Y107.708 E128.81234
G1 X92.292 Y83.487 E130.61701
G1 X92.292 Y84.084 E130.64849
G1 X115.916 Y107.708 E132.40865
G1 X115.318 Y107.708 E132.44012
G1 X92.292 Y84.682 E134.15578
G1 X92.292 Y85.279 E134.18725
G1 X114.721 Y107.708 E135.85839
G1 X114.124 Y107.708 E135.88987
G1 X92.292 Y85.876 E137.51650
G1 X92.292 Y86.474 E137.54797
G1 X113.526 Y107.708 E139.13010
G1 X112.929 Y107.708 E139.16157
G1 X92.292 Y87.071 E140.69918
G1 X92.292 Y87.668 E140.73066
G1 X112.332 Y107.708 E142.22376
G1 X111.734 Y107.708 E142.25524
G1 X92.292 Y88.266 E143.70383
G1 X92.292 Y88.863 E143.73530
G1 X111.137 Y107.708 E145.13939
G1 X110.539 Y107.708 E145.17086
G1 X92.292 Y89.461 E146.53044
G1 X92.292 Y90.058 E146.56191
G1 X109.942 Y107.708 E147.87698
G1 X109.345 Y107.708 E147.90845
G1 X92.292 Y90.655 E149.17901
G1 X92.292 Y91.253 E149.21048
G1 X108.747 Y107.708 E150.43653
G1 X108.150 Y107.708 E150.46800
G1 X92.292 Y91.850 E151.64954
G1 X92.292 Y92.447 E151.68101
G1 X107.553 Y107.708 E152.81804
G1 X106.955 Y107.708 E152.84952
G1 X92.292 Y93.045 E153.94203
G1 X92.292 Y93.642 E153.97351
G1 X106.358 Y107.708 E155.02152
G1 X105.760 Y107.708 E155.05299
G1 X92.292 Y94.240 E156.05649
G1 X92.292 Y94.837 E156.08796
G1 X105.163 Y107.708 E157.04695
G1 X104.566 Y107.708 E157.07842
G1 X92.292 Y95.434 E157.99290
G1 X92.292 Y96.032 E158.02438
G1 X103.968 Y107.708 E158.89435
G1 X103.371 Y107.708 E158.92582
G1 X92.292 Y96.629 E159.75128
G1 X92.292 Y97.227 E159.78276
G1 X102.773 Y107.708 E160.56371
G1 X102.176 Y107.708 E160.59518
G1 X92.292 Y97.824 E161.33162
G1 X92.292 Y98.421 E161.36309
G1 X101.579 Y107.708 E162.05503
G1 X100.981 Y107.708 E162.08650
G1 X92.292 Y99.019 E162.73392
G1 X92.292 Y99.616 E162.76540
G1 X100.384 Y107.708 E163.36831
G1 X99.787 Y107.708 E163.39978
G1 X92.292 Y100.213 E163.95819
G1 X92.292 Y100.811 E163.98966
G1 X99.189 Y107.708 E164.50355
G1 X98.592 Y107.708 E164.53503
G1 X92.292 Y101.408 E165.00441
G1 X92.292 Y102.006 E165.03588
G1 X97.994 Y107.708 E165.46076
G1 X97.397 Y107.708 E165.49223
G1 X92.292 Y102.603 E165.87260
G1 X92.292 Y103.200 E165.90407
G1 X96.800 Y107.708 E166.23992
G1 X96.202 Y107.708 E166.27140
G1 X92.292 Y103.798 E166.56274
G1 X92.292 Y104.395 E166.59422
G1 X95.605 Y107.708 E166.84105
G1 X95.008 Y107.708 E166.87253
G1 X92.292 Y104.992 E167.07485
G1 X92.292 Y105.590 E167.10632
G1 X94.410 Y107.708 E167.26414
G1 X93.813 Y107.708 E167.29562
G1 X92.292 Y106.187 E167.40892
G1 X92.292 Y106.785 E167.44040
G1 X93.215 Y107.708 E167.50919
G1 X92.618 Y107.708 E167.54067
G1 X92.292 Y107.382 E167.56495
G1 Z0.800 F15000.000
G1 X117.964 Y107.964 F15000.000
G1 F6000.000
G1 X92.036 Y107.964 E168.91955
G1 X92.036 Y82.036 E170.27414
G1 X117.964 Y82.036 E171.62873
G1 X117.964 Y107.904 E172.98019
G1 X118.383 Y108.383 F15000.000
G1 F6000.000
G1 X91.617 Y108.383 E174.37855
G1 X91.617 Y81.617 E175.77691
G1 X118.383 Y81.617 E177.17527
